lib/flags/dj-djibouti.svg

<svg xmlns="http://www.w3.org/2000/svg" fill="none" aria-hidden="true" viewBox="0 0 42 30"><g id="Country=DJ - Djibouti, Size=sm (36x24)" filter="url(#filter0_dd_91_28793)"><g clip-path="url(#clip0_91_28793)"><g id="flag"><mask id="mask0_91_28793" width="36" height="24" x="3" y="2" maskUnits="userSpaceOnUse" style="mask-type:alpha"><rect id="mask" width="36" height="24" x="3" y="2" fill="white"/></mask><g mask="url(#mask0_91_28793)"><g id="contents"><path id="background" fill="#73BE4A" fill-rule="evenodd" d="M3 2V26H39V2H3Z" clip-rule="evenodd"/><g id="Object"><mask id="mask1_91_28793" width="36" height="24" x="3" y="2" maskUnits="userSpaceOnUse" style="mask-type:alpha"><path id="background_2" fill="white" fill-rule="evenodd" d="M3 2V26H39V2H3Z" clip-rule="evenodd"/></mask><g mask="url(#mask1_91_28793)"><path id="top" fill="#6699FF" fill-rule="evenodd" d="M3 0V14H39V0H3Z" clip-rule="evenodd"/></g></g><path id="triangle" fill="white" fill-rule="evenodd" d="M3 2V26L23.25 14L3 2Z" clip-rule="evenodd"/><mask id="mask2_91_28793" width="21" height="24" x="3" y="2" maskUnits="userSpaceOnUse" style="mask-type:alpha"><path id="triangle_2" fill="white" fill-rule="evenodd" d="M3 2V26L23.25 14L3 2Z" clip-rule="evenodd"/></mask><g mask="url(#mask2_91_28793)"><path id="Star 5" fill="#E31D1C" fill-rule="evenodd" d="M10.877 16.0706L8.77251 17.2L9.25254 14.9962L7.5 13.3469L9.87303 13.2577L10.877 11.2L11.881 13.2577H14.25L12.5015 14.9962L13.0279 17.2L10.877 16.0706Z" clip-rule="evenodd"/></g></g></g></g></g></g><defs><filter id="filter0_dd_91_28793" width="42" height="30" x="0" y="0" color-interpolation-filters="sRGB" filterUnits="userSpaceOnUse"><feFlood flood-opacity="0" result="BackgroundImageFix"/><feColorMatrix in="SourceAlpha" result="hardAlpha" values="0 0 0 0 0 0 0 0 0 0 0 0 0 0 0 0 0 0 127 0"/><feOffset dy="1"/><feGaussianBlur stdDeviation="1"/><feColorMatrix values="0 0 0 0 0.0627451 0 0 0 0 0.0941176 0 0 0 0 0.156863 0 0 0 0.06 0"/><feBlend in2="BackgroundImageFix" result="effect1_dropShadow_91_28793"/><feColorMatrix in="SourceAlpha" result="hardAlpha" values="0 0 0 0 0 0 0 0 0 0 0 0 0 0 0 0 0 0 127 0"/><feOffset dy="1"/><feGaussianBlur stdDeviation="1.5"/><feColorMatrix values="0 0 0 0 0.0627451 0 0 0 0 0.0941176 0 0 0 0 0.156863 0 0 0 0.1 0"/><feBlend in2="effect1_dropShadow_91_28793" result="effect2_dropShadow_91_28793"/><feBlend in="SourceGraphic" in2="effect2_dropShadow_91_28793" result="shape"/></filter><clipPath id="clip0_91_28793"><rect width="36" height="24" x="3" y="2" fill="white" rx="2"/></clipPath></defs></svg>

<svg xmlns="http://www.w3.org/2000/svg" fill="none" aria-hidden="true" viewBox="0 0 42 30"><g filter="url(#a)"><g clip-path="url(#b)"><mask id="c" width="36" height="24" x="3" y="2" maskUnits="userSpaceOnUse" style="mask-type:alpha"><path fill="#fff" d="M3 2h36v24H3z"/></mask><g mask="url(#c)"><path fill="#73BE4A" fill-rule="evenodd" d="M3 2v24h36V2H3Z" clip-rule="evenodd"/><mask id="d" width="36" height="24" x="3" y="2" maskUnits="userSpaceOnUse" style="mask-type:alpha"><path fill="#fff" fill-rule="evenodd" d="M3 2v24h36V2H3Z" clip-rule="evenodd"/></mask><g mask="url(#d)"><path fill="#69F" fill-rule="evenodd" d="M3 0v14h36V0H3Z" clip-rule="evenodd"/></g><path fill="#fff" fill-rule="evenodd" d="M3 2v24l20.25-12L3 2Z" clip-rule="evenodd"/><mask id="e" width="21" height="24" x="3" y="2" maskUnits="userSpaceOnUse" style="mask-type:alpha"><path fill="#fff" fill-rule="evenodd" d="M3 2v24l20.25-12L3 2Z" clip-rule="evenodd"/></mask><g mask="url(#e)"><path fill="#E31D1C" fill-rule="evenodd" d="M10.877 16.07 8.773 17.2l.48-2.204-1.753-1.65 2.373-.088 1.004-2.058 1.004 2.058h2.369l-1.748 1.738.526 2.204-2.151-1.13Z" clip-rule="evenodd"/></g></g></g></g><defs><clipPath id="b"><rect width="36" height="24" x="3" y="2" fill="#fff" rx="2"/></clipPath><filter id="a" width="42" height="30" x="0" y="0" color-interpolation-filters="sRGB" filterUnits="userSpaceOnUse"><feFlood flood-opacity="0" result="BackgroundImageFix"/><feColorMatrix in="SourceAlpha" result="hardAlpha" values="0 0 0 0 0 0 0 0 0 0 0 0 0 0 0 0 0 0 127 0"/><feOffset dy="1"/><feGaussianBlur stdDeviation="1"/><feColorMatrix values="0 0 0 0 0.0627451 0 0 0 0 0.0941176 0 0 0 0 0.156863 0 0 0 0.06 0"/><feBlend in2="BackgroundImageFix" result="effect1_dropShadow_91_28793"/><feColorMatrix in="SourceAlpha" result="hardAlpha" values="0 0 0 0 0 0 0 0 0 0 0 0 0 0 0 0 0 0 127 0"/><feOffset dy="1"/><feGaussianBlur stdDeviation="1.5"/><feColorMatrix values="0 0 0 0 0.0627451 0 0 0 0 0.0941176 0 0 0 0 0.156863 0 0 0 0.1 0"/><feBlend in2="effect1_dropShadow_91_28793" result="effect2_dropShadow_91_28793"/><feBlend in="SourceGraphic" in2="effect2_dropShadow_91_28793" result="shape"/></filter></defs></svg>
